src/svg/top_side.svg

<?xml version="1.0" encoding="UTF-8" standalone="no"?>
<svg
   xmlns:dc="http://purl.org/dc/elements/1.1/"
   xmlns:cc="http://creativecommons.org/ns#"
   xmlns:rdf="http://www.w3.org/1999/02/22-rdf-syntax-ns#"
   xmlns:svg="http://www.w3.org/2000/svg"
   xmlns="http://www.w3.org/2000/svg"
   xmlns:sodipodi="http://sodipodi.sourceforge.net/DTD/sodipodi-0.dtd"
   xmlns:inkscape="http://www.inkscape.org/namespaces/inkscape"
   width="32"
   height="32"
   version="1.1"
   viewBox="0 0 32 32"
   id="svg24"
   sodipodi:docname="top_side.svg"
   inkscape:version="0.92.4 5da689c313, 2019-01-14">
  <metadata
     id="metadata28">
    <rdf:RDF>
      <cc:Work
         rdf:about="">
        <dc:format>image/svg+xml</dc:format>
        <dc:type
           rdf:resource="http://purl.org/dc/dcmitype/StillImage" />
      </cc:Work>
    </rdf:RDF>
  </metadata>
  <sodipodi:namedview
     pagecolor="#ffffff"
     bordercolor="#666666"
     borderopacity="1"
     objecttolerance="10"
     gridtolerance="10"
     guidetolerance="10"
     inkscape:pageopacity="0"
     inkscape:pageshadow="2"
     inkscape:window-width="1366"
     inkscape:window-height="696"
     id="namedview26"
     showgrid="true"
     inkscape:zoom="20.85965"
     inkscape:cx="12.705649"
     inkscape:cy="22.546487"
     inkscape:window-x="0"
     inkscape:window-y="36"
     inkscape:window-maximized="1"
     inkscape:current-layer="svg24">
    <inkscape:grid
       type="xygrid"
       id="grid849" />
  </sodipodi:namedview>
  <defs
     id="defs8">
    <filter
       id="b"
       x="-.12404"
       y="-.55819"
       width="1.2481"
       height="2.1164"
       color-interpolation-filters="sRGB">
      <feGaussianBlur
         stdDeviation="0.9303225"
         id="feGaussianBlur2" />
    </filter>
    <filter
       id="a"
       x="-.15902"
       y="-.1571"
       width="1.318"
       height="1.3142"
       color-interpolation-filters="sRGB">
      <feGaussianBlur
         stdDeviation="0.9303225"
         id="feGaussianBlur5" />
    </filter>
    <filter
       inkscape:collect="always"
       style="color-interpolation-filters:sRGB"
       id="filter888"
       x="-0.12242878"
       width="1.2448575"
       y="-0.11766571"
       height="1.2353314">
      <feGaussianBlur
         inkscape:collect="always"
         stdDeviation="0.91821583"
         id="feGaussianBlur890" />
    </filter>
  </defs>
  <path
     inkscape:connector-curvature="0"
     id="path850"
     d="M 12.187765,10.025631 A 1.0001,1.0001 0 0 0 11.496359,10.3186 L 7.961202,13.853756 A 1.0001,1.0001 0 0 0 7.73464,14.920163 l 3.535156,9.193359 a 1.0001,1.0001 0 0 0 1.867188,0 L 16.67214,14.920163 A 1.0001,1.0001 0 0 0 16.445578,13.853756 L 12.910421,10.3186 a 1.0001,1.0001 0 0 0 -0.722656,-0.292969 z m 0.01563,2.414063 2.369141,2.369141 -2.369146,6.158203 -2.369141,-6.158203 z M 4.20339,25.754147 a 1.0001,1.0001 0 0 0 -1,1 v 1 a 1.0001,1.0001 0 0 0 1,1 h 16 a 1.0001,1.0001 0 0 0 1,-1 v -1 a 1.0001,1.0001 0 0 0 -1,-1 z"
     style="color:#000000;font-style:normal;font-variant:normal;font-weight:normal;font-stretch:normal;font-size:medium;line-height:normal;font-family:sans-serif;font-variant-ligatures:normal;font-variant-position:normal;font-variant-caps:normal;font-variant-numeric:normal;font-variant-alternates:normal;font-feature-settings:normal;text-indent:0;text-align:start;text-decoration:none;text-decoration-line:none;text-decoration-style:solid;text-decoration-color:#000000;letter-spacing:normal;word-spacing:normal;text-transform:none;writing-mode:lr-tb;direction:ltr;text-orientation:mixed;dominant-baseline:auto;baseline-shift:baseline;text-anchor:start;white-space:normal;shape-padding:0;clip-rule:nonzero;display:inline;overflow:visible;visibility:visible;opacity:0.35;isolation:auto;mix-blend-mode:normal;color-interpolation:sRGB;color-interpolation-filters:linearRGB;solid-color:#000000;solid-opacity:1;vector-effect:none;fill:#000000;fill-opacity:1;fill-rule:nonzero;stroke:none;stroke-width:2;stroke-linecap:round;stroke-linejoin:round;stroke-miterlimit:4;stroke-dasharray:none;stroke-dashoffset:0;stroke-opacity:1;paint-order:stroke fill markers;filter:url(#filter888);color-rendering:auto;image-rendering:auto;shape-rendering:auto;text-rendering:auto;enable-background:accumulate"
     transform="rotate(180,14.101695,16.377044)" />
  <path
     style="color:#000000;font-style:normal;font-variant:normal;font-weight:normal;font-stretch:normal;font-size:medium;line-height:normal;font-family:sans-serif;font-variant-ligatures:normal;font-variant-position:normal;font-variant-caps:normal;font-variant-numeric:normal;font-variant-alternates:normal;font-feature-settings:normal;text-indent:0;text-align:start;text-decoration:none;text-decoration-line:none;text-decoration-style:solid;text-decoration-color:#000000;letter-spacing:normal;word-spacing:normal;text-transform:none;writing-mode:lr-tb;direction:ltr;text-orientation:mixed;dominant-baseline:auto;baseline-shift:baseline;text-anchor:start;white-space:normal;shape-padding:0;clip-rule:nonzero;display:inline;overflow:visible;visibility:visible;opacity:1;isolation:auto;mix-blend-mode:normal;color-interpolation:sRGB;color-interpolation-filters:linearRGB;solid-color:#000000;solid-opacity:1;vector-effect:none;fill:#ffffff;fill-opacity:1;fill-rule:nonzero;stroke:none;stroke-width:2;stroke-linecap:round;stroke-linejoin:round;stroke-miterlimit:4;stroke-dasharray:none;stroke-dashoffset:0;stroke-opacity:1;paint-order:stroke fill markers;color-rendering:auto;image-rendering:auto;shape-rendering:auto;text-rendering:auto;enable-background:accumulate"
     d="m 16.015624,21.728457 a 1.0001,1.0001 0 0 0 0.691406,-0.292969 l 3.535157,-3.535156 a 1.0001,1.0001 0 0 0 0.226562,-1.066407 L 16.933593,7.6405662 a 1.0001,1.0001 0 0 0 -1.867188,0 l -3.535156,9.1933588 a 1.0001,1.0001 0 0 0 0.226562,1.066407 l 3.535157,3.535156 a 1.0001,1.0001 0 0 0 0.722656,0.292969 z m -0.01563,-2.414063 -2.369141,-2.369141 2.369146,-6.158203 2.369141,6.158203 z M 24,5.9999417 a 1.0001,1.0001 0 0 0 1,-1 v -1 A 1.0001,1.0001 0 0 0 24,2.9999413 H 7.9999994 A 1.0001,1.0001 0 0 0 6.9999997,3.9999417 v 1 a 1.0001,1.0001 0 0 0 0.9999997,1 z"
     id="path846"
     inkscape:connector-curvature="0" />
  <path
     inkscape:connector-curvature="0"
     style="opacity:1;fill:#333333;fill-opacity:1;stroke:none;stroke-width:1.99273682;stroke-linecap:round;stroke-linejoin:round;stroke-miterlimit:4;stroke-dasharray:none;stroke-opacity:1;paint-order:stroke fill markers"
     d="M 16,20.728516 19.535156,17.193359 16,8.0000002 12.464844,17.193359 Z M 24,5 V 4 H 8 v 1 z"
     id="rect835" />
</svg>

<svg xmlns="http://www.w3.org/2000/svg" width="32" height="32" viewBox="0 0 32 32">
  <defs>
    <filter style="color-interpolation-filters:sRGB" id="a" x="-.122" width="1.245" y="-.118" height="1.235">
      <feGaussianBlur stdDeviation=".918"/>
    </filter>
  </defs>
  <path d="M12.188 10.026a1 1 0 0 0-.692.293l-3.535 3.535a1 1 0 0 0-.226 1.066l3.535 9.194a1 1 0 0 0 1.867 0l3.535-9.194a1 1 0 0 0-.226-1.066l-3.536-3.535a1 1 0 0 0-.722-.293m.015 2.414 2.37 2.369-2.37 6.158-2.369-6.158zm-8 13.314a1 1 0 0 0-1 1v1a1 1 0 0 0 1 1h16a1 1 0 0 0 1-1v-1a1 1 0 0 0-1-1z" style="color:#000;font-style:normal;font-variant:normal;font-weight:400;font-stretch:normal;font-size:medium;line-height:normal;font-family:sans-serif;font-variant-ligatures:normal;font-variant-position:normal;font-variant-caps:normal;font-variant-numeric:normal;font-variant-alternates:normal;font-feature-settings:normal;text-indent:0;text-align:start;text-decoration:none;text-decoration-line:none;text-decoration-style:solid;text-decoration-color:#000;letter-spacing:normal;word-spacing:normal;text-transform:none;writing-mode:lr-tb;direction:ltr;text-orientation:mixed;dominant-baseline:auto;baseline-shift:baseline;text-anchor:start;white-space:normal;shape-padding:0;clip-rule:nonzero;display:inline;overflow:visible;visibility:visible;opacity:.35;isolation:auto;mix-blend-mode:normal;color-interpolation:sRGB;color-interpolation-filters:linearRGB;solid-color:#000;solid-opacity:1;vector-effect:none;fill:#000;fill-opacity:1;fill-rule:nonzero;stroke:none;stroke-width:2;stroke-linecap:round;stroke-linejoin:round;stroke-miterlimit:4;stroke-dasharray:none;stroke-dashoffset:0;stroke-opacity:1;paint-order:stroke fill markers;filter:url(#a);color-rendering:auto;image-rendering:auto;shape-rendering:auto;text-rendering:auto;enable-background:accumulate" transform="rotate(180 14.102 16.377)"/>
  <path style="color:#000;font-style:normal;font-variant:normal;font-weight:400;font-stretch:normal;font-size:medium;line-height:normal;font-family:sans-serif;font-variant-ligatures:normal;font-variant-position:normal;font-variant-caps:normal;font-variant-numeric:normal;font-variant-alternates:normal;font-feature-settings:normal;text-indent:0;text-align:start;text-decoration:none;text-decoration-line:none;text-decoration-style:solid;text-decoration-color:#000;letter-spacing:normal;word-spacing:normal;text-transform:none;writing-mode:lr-tb;direction:ltr;text-orientation:mixed;dominant-baseline:auto;baseline-shift:baseline;text-anchor:start;white-space:normal;shape-padding:0;clip-rule:nonzero;display:inline;overflow:visible;visibility:visible;opacity:1;isolation:auto;mix-blend-mode:normal;color-interpolation:sRGB;color-interpolation-filters:linearRGB;solid-color:#000;solid-opacity:1;vector-effect:none;fill:#d3c6aa;fill-opacity:1;fill-rule:nonzero;stroke:none;stroke-width:2;stroke-linecap:round;stroke-linejoin:round;stroke-miterlimit:4;stroke-dasharray:none;stroke-dashoffset:0;stroke-opacity:1;paint-order:stroke fill markers;color-rendering:auto;image-rendering:auto;shape-rendering:auto;text-rendering:auto;enable-background:accumulate" d="M16.016 21.728a1 1 0 0 0 .691-.293l3.535-3.535a1 1 0 0 0 .227-1.066L16.934 7.64a1 1 0 0 0-1.868 0l-3.535 9.193a1 1 0 0 0 .227 1.066l3.535 3.535a1 1 0 0 0 .723.293M16 19.314l-2.37-2.369L16 10.787l2.37 6.158zM24 6a1 1 0 0 0 1-1V4a1 1 0 0 0-1-1H8a1 1 0 0 0-1 1v1a1 1 0 0 0 1 1z"/>
  <path style="opacity:1;fill:#272e33;fill-opacity:1;stroke:none;stroke-width:1.99273682;stroke-linecap:round;stroke-linejoin:round;stroke-miterlimit:4;stroke-dasharray:none;stroke-opacity:1;paint-order:stroke fill markers" d="m16 20.729 3.535-3.536L16 8l-3.535 9.193ZM24 5V4H8v1z"/>
</svg>
